svg/u1f3e4.svg

<svg viewBox="0 0 128 128" xmlns="http://www.w3.org/2000/svg">
  <path d="M22.46,58.56L3.65,65.78c0,0,0.36,56.07,0.29,56.86s0.21,1.5,1.07,1.57c0.86,0.07,116.72,0,117.81,0 c1.09,0,1.41-0.58,1.41-1.41c0-0.83,0-56.69,0-56.69l-58.37-9.37L22.46,58.56z" fill="#F7B03C"/>
  <polygon points="7.08,60.8 7.08,121.33 31.21,121.33 31.21,60.9 " fill="#F9DFB1"/>
  <polygon points="97.26,62.36 97.26,120.65 121,120.65 121,61.29 " fill="#F9DFB1"/>
  <path d="M10.41,89.36c0,0,0,19.1,0,19.6c0,0.51,0.05,1.32,1.01,1.32s15.24,0,15.74,0s0.96-0.46,0.96-1.42 c0-0.96,0-19.55,0-19.55L10.41,89.36z" fill="#6BA4AE"/>
  <polygon points="18.15,90.61 18.15,110.28 20.23,110.28 20.23,89.7 " fill="#A7D0D6"/>
  <path d="M10.36,82.49c-0.81-0.05-1.21,0.71-1.42,1.47s-2.08,7.29-2.18,8.45c-0.09,1.02,0.4,1.11,2.18,1.06 c1.77-0.05,20.7,0.15,21.72,0.1c0.92-0.05,1.57-0.3,1.06-2.33c-0.31-1.23-1.77-6.38-2.02-7.24c-0.28-0.97-0.56-1.52-1.32-1.52 C27.72,82.49,11.17,82.54,10.36,82.49z" fill="#024FAC"/>
  <path d="M100.48,90.04c0,0-0.11,18.8-0.11,19.42c0,0.62,0.11,1.3,1.19,1.42c1.08,0.11,15.4,0.23,15.97,0.23 c0.57,0,0.74-0.85,0.74-1.64c0-0.79,0.06-20.21,0.06-20.21L100.48,90.04z" fill="#6BA4AE"/>
  <polygon points="108.47,88.58 108.41,110.99 111.02,110.99 111.02,88.87 " fill="#A7D0D6"/>
  <path d="M100.83,82.3c-0.81-0.05-1.21,0.71-1.42,1.47s-2.33,6.99-2.43,8.15c-0.09,1.02,0.66,1.14,2.43,1.19 c1.93,0.06,20.19,0.09,21.2,0.04c0.92-0.05,1.21-0.76,0.6-2.76c-0.41-1.33-2.24-5.76-2.49-6.63c-0.28-0.97-0.56-1.52-1.32-1.52 C116.74,82.25,101.64,82.35,100.83,82.3z" fill="#024FAC"/>
  <polygon points="36.28,53.27 35.83,120.9 92.57,120.79 93.35,52.49 66.42,26.68 " fill="#F9DFB1"/>
  <polygon points="35.67,119.5 35.67,124.19 92.58,124.19 92.65,119.66 " fill="#866054"/>
  <polygon points="36.09,75.54 36.09,81.44 93.03,81.51 93.03,75.9 " fill="#866054"/>
  <path d="M3.65,65.78h32.59V55.75l28.33-25.44L93.31,55.7l-0.1,10.75l31.02-0.33c0,0-3.01-8.35-3.01-8.96 s-0.31-1.3-2.68-1.38s-24.19,0-24.19,0s5.43-4.74,5.36-5.05c-0.08-0.31-30.93-27.89-31.46-28.35c-0.54-0.46-2-2.07-3.39-2.07 c-1.15,0-2.74,1.54-3.81,2.53S29.21,51.33,30.6,50.08c0.17-0.15,4.47,5.16,4.47,5.16S8.2,54.93,7.89,55.09 C7.59,55.24,3.65,65.78,3.65,65.78z" fill="#866054"/>
  <path d="M53.52,124.29c0,0,0.23-39.04,0.23-39.59c0-0.56,0.15-1.04,0.77-1.04s19.76,0.08,20.22,0.08 s0.61,0.48,0.61,1.12c0,0.64-0.08,39.27-0.08,39.27L53.52,124.29z" fill="#395661"/>
  <polygon points="56.97,87 56.74,117.32 72.06,117.32 71.98,87 " fill="#6BA4AE"/>
  <path d="M68.75,104.12c-0.3,0-0.44,0.91-0.48,1.87c-0.04,0.96,0.22,1.83,0.35,1.83s5.31,0,5.48,0 c0.17,0,0.39-0.91,0.39-1.7c0-1.26-0.44-1.96-0.57-1.96S68.75,104.12,68.75,104.12z" fill="#E0A614"/>
  <path d="M49.22,56.39c0,0-0.07-2.37-0.84-2.51c-0.72-0.14-3.46,2.11-3.29,2.82c0.18,0.71,2.37,1.12,2.37,1.12 L49.22,56.39z" fill="#E2A613"/>
  <path d="M85.57,63.79L81.3,62.4l-6.76,0.97c0,0,0.42-1.36,0.62-2.44c0.37-2.06,0-3.8,0-3.8 s-3.47-8.08-10.48-8.21c-7.01-0.13-9.04,5.9-9.04,5.9l-0.79,6.98c0,0-1.96-1.69-2.48-2.25c-0.53-0.55-3.17-3.63-3.17-3.63 l-2.24,1.78c0,0,2.6,4.42,7.1,8.67c6.51,6.16,11.97,5.2,15.69,4.67c5.16-0.74,12.28-5.64,12.28-5.64s0.84-0.03,3.04-0.25 c2.24-0.23,2.61-0.81,2.61-0.81L85.57,63.79z M65.13,66.71c-7.1,0.87-6.77-3.8-6.77-3.8s-1.01-2.08-0.97-4.32 c0.02-1.26,0.41-2.95,1.56-4.34c1.07-1.31,2.74-2.36,5.28-2.36c5.66,0,7.14,4.46,7.1,7.51C71.28,62.99,68.5,66.3,65.13,66.71z" fill="#9E730A"/>
  <path d="M74.71,59.4c-0.71,0.04-1.21-1.09-2.02-3.1c-1.06-2.6-3.89-5.56-7.56-5.9 c-1.92-0.18-4.62,0.37-6.28,2.06c-2.51,2.57-2.7,6.12-1.32,8.96c1.37,2.84,3.47,4.97,6.98,4.95c5.91-0.03,11.6-4.67,12.18-6.81 c0.58-2.15,0.78-6.23,1.61-6.89s4.05-0.08,7.18,4.58s2.87,6.53,2.2,7.09s-5.5-0.44-6.86-0.19c-1.36,0.25-8.3,6.36-16.39,5.74 c-3.03-0.23-5.5-1.22-7.43-2.97c-2.96-2.69-4.71-7.68-3.01-12.22c3.24-8.68,13.39-8.4,17.55-4.62c2.77,2.52,3.14,4.58,3.47,6.11 C75.24,57.29,75.41,59.36,74.71,59.4z" fill="#E2A613"/>
  <path d="M79.54,54.24c-0.2,0.03,0.29,3.1,2.31,5.49c1.88,2.23,4.34,3.43,4.62,3.3 c0.29-0.12-0.33-2.48-2.39-5.24C81.89,54.86,79.79,54.2,79.54,54.24z" fill="#9E730A"/>
  <path d="M61.54,65.72c-0.12,0.12-0.08,5.74,0.17,5.82c0.25,0.08,6.32,0.12,6.48,0.04 c0.17-0.08,0.25-5.86,0.21-5.99C68.35,65.47,61.54,65.72,61.54,65.72z" fill="#F83C30"/>
</svg>

<svg viewBox="0 0 128 128" xmlns="http://www.w3.org/2000/svg">
  <defs/>
  <path d="M22.46,58.56 L3.65,65.78 C3.65,65.78 4.01,121.85 3.94,122.64 C3.87,123.43 4.15,124.14 5.01,124.21 C5.87,124.28 121.73,124.21 122.82,124.21 C123.91,124.21 124.23,123.63 124.23,122.8 C124.23,121.97 124.23,66.11 124.23,66.11 L65.86,56.74 L22.46,58.56 Z" fill="#F7B03C"/>
  <path d="M7.08,60.8 L7.08,121.33 L31.21,121.33 L31.21,60.9 Z" fill="#F9DFB1"/>
  <path d="M97.26,62.36 L97.26,120.65 L121,120.65 L121,61.29 Z" fill="#F9DFB1"/>
  <path d="M10.41,89.36 C10.41,89.36 10.41,108.46 10.41,108.96 C10.41,109.47 10.46,110.28 11.42,110.28 C12.38,110.28 26.66,110.28 27.16,110.28 C27.66,110.28 28.12,109.82 28.12,108.86 C28.12,107.9 28.12,89.31 28.12,89.31 L10.41,89.36 Z" fill="#6BA4AE"/>
  <path d="M18.15,90.61 L18.15,110.28 L20.23,110.28 L20.23,89.7 Z" fill="#A7D0D6"/>
  <path d="M10.36,82.49 C9.55,82.44 9.15,83.2 8.94,83.96 C8.73,84.72 6.86,91.25 6.76,92.41 C6.67,93.43 7.16,93.52 8.94,93.47 C10.71,93.42 29.64,93.62 30.66,93.57 C31.58,93.52 32.23,93.27 31.72,91.24 C31.41,90.01 29.95,84.86 29.7,84 C29.42,83.03 29.14,82.48 28.38,82.48 C27.72,82.49 11.17,82.54 10.36,82.49 Z" fill="#024FAC"/>
  <path d="M100.48,90.04 C100.48,90.04 100.37,108.84 100.37,109.46 C100.37,110.08 100.48,110.76 101.56,110.88 C102.64,110.99 116.96,111.11 117.53,111.11 C118.1,111.11 118.27,110.26 118.27,109.47 C118.27,108.68 118.33,89.26 118.33,89.26 L100.48,90.04 Z" fill="#6BA4AE"/>
  <path d="M108.47,88.58 L108.41,110.99 L111.02,110.99 L111.02,88.87 Z" fill="#A7D0D6"/>
  <path d="M100.83,82.3 C100.02,82.25 99.62,83.01 99.41,83.77 C99.2,84.53 97.08,90.76 96.98,91.92 C96.89,92.94 97.64,93.06 99.41,93.11 C101.34,93.17 119.6,93.2 120.61,93.15 C121.53,93.1 121.82,92.39 121.21,90.39 C120.8,89.06 118.97,84.63 118.72,83.76 C118.44,82.79 118.16,82.24 117.4,82.24 C116.74,82.25 101.64,82.35 100.83,82.3 Z" fill="#024FAC"/>
  <path d="M36.28,53.27 L35.83,120.9 L92.57,120.79 L93.35,52.49 L66.42,26.68 Z" fill="#F9DFB1"/>
  <path d="M35.67,119.5 L35.67,124.19 L92.58,124.19 L92.65,119.66 Z" fill="#866054"/>
  <path d="M36.09,75.54 L36.09,81.44 L93.03,81.51 L93.03,75.9 Z" fill="#866054"/>
  <path d="M3.65,65.78 L36.24,65.78 L36.24,55.75 L64.57,30.31 L93.31,55.7 L93.21,66.45 L124.23,66.12 C124.23,66.12 121.22,57.77 121.22,57.16 C121.22,56.55 120.91,55.86 118.54,55.78 C116.17,55.7 94.35,55.78 94.35,55.78 C94.35,55.78 99.78,51.04 99.71,50.73 C99.63,50.42 68.78,22.84 68.25,22.38 C67.71,21.92 66.25,20.31 64.86,20.31 C63.71,20.31 62.12,21.85 61.05,22.84 C59.98,23.83 29.21,51.33 30.6,50.08 C30.77,49.93 35.07,55.24 35.07,55.24 C35.07,55.24 8.2,54.93 7.89,55.09 C7.59,55.24 3.65,65.78 3.65,65.78 Z" fill="#866054"/>
  <path d="M53.52,124.29 C53.52,124.29 53.75,85.25 53.75,84.7 C53.75,84.14 53.9,83.66 54.52,83.66 C55.14,83.66 74.28,83.74 74.74,83.74 C75.2,83.74 75.35,84.22 75.35,84.86 C75.35,85.5 75.27,124.13 75.27,124.13 L53.52,124.29 Z" fill="#395661"/>
  <path d="M56.97,87 L56.74,117.32 L72.06,117.32 L71.98,87 Z" fill="#6BA4AE"/>
  <path d="M68.75,104.12 C68.45,104.12 68.31,105.03 68.27,105.99 C68.23,106.95 68.49,107.82 68.62,107.82 C68.75,107.82 73.93,107.82 74.1,107.82 C74.27,107.82 74.49,106.91 74.49,106.12 C74.49,104.86 74.05,104.16 73.92,104.16 C73.79,104.16 68.75,104.12 68.75,104.12 Z" fill="#E0A614"/>
  <path d="M49.22,56.39 C49.22,56.39 49.15,54.02 48.38,53.88 C47.66,53.74 44.92,55.99 45.09,56.7 C45.27,57.41 47.46,57.82 47.46,57.82 L49.22,56.39 Z" fill="#E2A613"/>
  <path d="M85.57,63.79 L81.3,62.4 L74.54,63.37 C74.54,63.37 74.96,62.01 75.16,60.93 C75.53,58.87 75.16,57.13 75.16,57.13 C75.16,57.13 71.69,49.05 64.68,48.92 C57.67,48.79 55.64,54.82 55.64,54.82 L54.85,61.8 C54.85,61.8 52.89,60.11 52.37,59.55 C51.84,59 49.2,55.92 49.2,55.92 L46.96,57.7 C46.96,57.7 49.56,62.12 54.06,66.37 C60.57,72.53 66.03,71.57 69.75,71.04 C74.91,70.3 82.03,65.4 82.03,65.4 C82.03,65.4 82.87,65.37 85.07,65.15 C87.31,64.92 87.68,64.34 87.68,64.34 L85.57,63.79 Z M65.13,66.71 C58.03,67.58 58.36,62.91 58.36,62.91 C58.36,62.91 57.35,60.83 57.39,58.59 C57.41,57.33 57.8,55.64 58.95,54.25 C60.02,52.94 61.69,51.89 64.23,51.89 C69.89,51.89 71.37,56.35 71.33,59.4 C71.28,62.99 68.5,66.3 65.13,66.71 Z" fill="#9E730A"/>
  <path d="M74.71,59.4 C74,59.44 73.5,58.31 72.69,56.3 C71.63,53.7 68.8,50.74 65.13,50.4 C63.21,50.22 60.51,50.77 58.85,52.46 C56.34,55.03 56.15,58.58 57.53,61.42 C58.9,64.26 61,66.39 64.51,66.37 C70.42,66.34 76.11,61.7 76.69,59.56 C77.27,57.41 77.47,53.33 78.3,52.67 C79.13,52.01 82.35,52.59 85.48,57.25 C88.61,61.91 88.35,63.78 87.68,64.34 C87.01,64.9 82.18,63.9 80.82,64.15 C79.46,64.4 72.52,70.51 64.43,69.89 C61.4,69.66 58.93,68.67 57,66.92 C54.04,64.23 52.29,59.24 53.99,54.7 C57.23,46.02 67.38,46.3 71.54,50.08 C74.31,52.6 74.68,54.66 75.01,56.19 C75.24,57.29 75.41,59.36 74.71,59.4 Z" fill="#E2A613"/>
  <path d="M79.54,54.24 C79.34,54.27 79.83,57.34 81.85,59.73 C83.73,61.96 86.19,63.16 86.47,63.03 C86.76,62.91 86.14,60.55 84.08,57.79 C81.89,54.86 79.79,54.2 79.54,54.24 Z" fill="#9E730A"/>
  <path d="M61.54,65.72 C61.42,65.84 61.46,71.46 61.71,71.54 C61.96,71.62 68.03,71.66 68.19,71.58 C68.36,71.5 68.44,65.72 68.4,65.59 C68.35,65.47 61.54,65.72 61.54,65.72 Z" fill="#F83C30"/>
</svg>
